X:199
T:Lowdon, The
M:2/4
L:1/8
B:Thompson's Compleat Collection of 200 Favourite Country Dances, vol. 3 (London, 1773)
Z:Transcribed and edited by Flynn Titford-Mock, 2007
Z:abc's:AK/Fiddler's Companion
K:A
e>aec | B>ABc | d>cde | fgaf | efec | fgaf | ecBc | AA/A/ A2 :|
|: ceAe | Be^de | ceAe | BE E2 | ceAe | B^dfa | gfe^d | ee/e/ e2 :|
|: aaag | fffe | ceAc | BE E2 | aaag | fffc | BABc | AA/A/ A2 :|
|: CEAc | FAdf | ecec | BE E2 | CEAc | FAdf | ecBc | AA/A/ A2 :|

